packages/core/src/svg/icon-double-like.svg

<?xml version="1.0" encoding="UTF-8"?>
<svg xmlns="http://www.w3.org/2000/svg" width="100%" height="100%" viewBox="0 0 24 24">
  <path d="M22.5095797,5.49309553 C21.5471248,4.53064061 20.2667891,4 18.9052521,4 C17.213245,4 16.1091601,4.71507442 15.4589207,5.35587175 C15.3796079,5.28222412 15.2990361,5.21172382 15.2159465,5.14311193 C14.5864796,4.60051144 13.6290604,4.06798243 12.2637466,4.0075536 C12.1838043,4.00314733 12.1032326,4.00062947 12.0226608,4.00062947 C12.0151072,4.00062947 12.0081831,4 12.0006295,4 L12,4 L11.9993705,4 C11.9918169,4 11.9848928,4.00062947 11.9779687,4.00062947 C11.8967674,4.00062947 11.8161957,4.00314733 11.7362534,4.0075536 C10.3715691,4.06798243 9.41352042,4.60051144 8.7840535,5.14311193 C8.70096387,5.21172382 8.62102157,5.28222412 8.54170874,5.35587175 C7.89083994,4.71507442 6.78675497,4 5.09474789,4 C3.73321094,4 2.45287522,4.53064061 1.4904203,5.49309553 C-0.496806767,7.4803226 -0.496806767,10.7145236 1.4904203,12.7017507 C2.40818307,13.6201429 3.24474461,14.3566192 4.0517212,15.0685463 C5.16084191,16.0467379 6.20890433,16.9695364 7.2941053,18.2228051 C7.37908334,18.3203724 7.70199987,18.7320438 7.88580421,18.9687234 L8.54674448,19.8235394 L9.20831421,18.9687234 C9.39211855,18.7320438 9.71440561,18.3203724 9.80064258,18.2228051 C10.5402662,17.367989 11.2628942,16.6667628 12,15.99701 C12.7364763,16.6667628 13.4597338,17.3673595 14.1999869,18.2228051 C14.2862239,18.3203724 14.6078815,18.7320438 14.7916858,18.9687234 L15.4532555,19.8235394 L16.1148253,18.9687234 C16.2986296,18.7320438 16.6215461,18.3203724 16.7058947,18.2228051 C17.7917251,16.9695364 18.8391581,16.0467379 19.9482788,15.0685463 C20.7558849,14.3566192 21.5918169,13.6201429 22.5095797,12.7017507 C24.4968068,10.7145236 24.4968068,7.4803226 22.5095797,5.49309553 M8.54674448,17.1111665 C7.39230214,15.7817323 6.30710117,14.8243132 5.15958298,13.8127598 C4.37023146,13.1171989 3.5550718,12.3996066 2.67444758,11.5183529 C1.33997771,10.1832536 1.33997771,8.01159268 2.67507704,6.67649334 C3.32153957,6.03066028 4.18013245,5.67438201 5.09474789,5.67438201 C5.48124057,5.67438201 5.81989378,5.72914563 6.11511376,5.817271 C7.87195594,6.23146023 8.54674448,7.8076454 8.54674448,7.8076454 C8.54674448,7.8076454 9.21460888,6.24908531 10.9500492,5.82419513 C11.2515638,5.73229296 11.5990296,5.67438201 11.9993705,5.67438201 C12.9133565,5.67438201 13.7725788,6.03066028 14.4190414,6.67712281 C15.7535112,8.01159268 15.7535112,10.1832536 14.4190414,11.5183529 C13.5384172,12.3996066 12.7232575,13.1171989 11.9351649,13.8127598 C10.7863878,14.8243132 9.70181627,15.7817323 8.54674448,17.1111665 M21.3255524,11.5183529 C20.4449282,12.3996066 19.6291391,13.1171989 18.8410465,13.8133893 C17.6928988,14.8243132 16.6076979,15.7811029 15.4532555,17.1111665 C14.7048194,16.2481673 13.9847092,15.5437938 13.2583044,14.8778178 C13.9991869,14.2238017 14.7665071,13.5383122 15.6030687,12.7017507 C17.2277228,11.0770966 17.5235722,8.62028719 16.4918759,6.69034162 C16.8620025,6.27174612 17.6161039,5.67438201 18.9052521,5.67438201 C19.820497,5.67438201 20.6790899,6.03066028 21.3255524,6.67712281 C22.6600223,8.01159268 22.6600223,10.1832536 21.3255524,11.5183529" />
</svg>

<?xml version="1.0" encoding="UTF-8"?><svg viewBox="0 0 24 24" xmlns="http://www.w3.org/2000/svg"><path d="m22.51 5.4931c-0.96245-0.96245-2.2428-1.4931-3.6043-1.4931-1.692 0-2.7961 0.71507-3.4463 1.3559-0.079313-0.073648-0.15988-0.14415-0.24297-0.21276-0.62947-0.5426-1.5869-1.0751-2.9522-1.1356-0.079942-0.0044063-0.16051-0.0069241-0.24109-0.0069241-0.0075536 0-0.014478-6.2947e-4 -0.022031-6.2947e-4h-6.295e-4 -6.295e-4c-0.0075536 0-0.014478 6.2947e-4 -0.021402 6.2947e-4 -0.081201 0-0.16177 0.0025179-0.24172 0.0069241-1.3647 0.060429-2.3227 0.59296-2.9522 1.1356-0.08309 0.068612-0.16303 0.13911-0.24234 0.21276-0.65087-0.6408-1.755-1.3559-3.447-1.3559-1.3615 0-2.6419 0.53064-3.6043 1.4931-1.9872 1.9872-1.9872 5.2214 0 7.2087 0.91776 0.91839 1.7543 1.6549 2.5613 2.3668 1.1091 0.97819 2.1572 1.901 3.2424 3.1543 0.084978 0.097567 0.40789 0.50924 0.5917 0.74592l0.66094 0.85482 0.66157-0.85482c0.1838-0.23668 0.50609-0.64835 0.59233-0.74592 0.73962-0.85482 1.4623-1.556 2.1994-2.2258 0.73648 0.66975 1.4597 1.3703 2.2 2.2258 0.086237 0.097567 0.40789 0.50924 0.5917 0.74592l0.66157 0.85482 0.66157-0.85482c0.1838-0.23668 0.50672-0.64835 0.59107-0.74592 1.0858-1.2533 2.1333-2.1761 3.2424-3.1543 0.80761-0.71193 1.6435-1.4484 2.5613-2.3668 1.9872-1.9872 1.9872-5.2214 0-7.2087m-13.963 11.618c-1.1544-1.3294-2.2396-2.2869-3.3872-3.2984-0.78935-0.69556-1.6045-1.4132-2.4851-2.2944-1.3345-1.3351-1.3345-3.5068 6.2946e-4 -4.8419 0.64646-0.64583 1.5051-1.0021 2.4197-1.0021 0.38649 0 0.72515 0.054764 1.0204 0.14289 1.7568 0.41419 2.4316 1.9904 2.4316 1.9904s0.66786-1.5586 2.4033-1.9835c0.30151-0.091902 0.64898-0.14981 1.0493-0.14981 0.91399 0 1.7732 0.35628 2.4197 1.0027 1.3345 1.3345 1.3345 3.5061 0 4.8412-0.88062 0.88125-1.6958 1.5988-2.4839 2.2944-1.1488 1.0116-2.2333 1.969-3.3884 3.2984m12.779-5.5928c-0.88062 0.88125-1.6964 1.5988-2.4845 2.295-1.1481 1.0109-2.2333 1.9677-3.3878 3.2978-0.74844-0.863-1.4685-1.5674-2.195-2.2333 0.74088-0.65402 1.5082-1.3395 2.3448-2.1761 1.6247-1.6247 1.9205-4.0815 0.88881-6.0114 0.37013-0.4186 1.1242-1.016 2.4134-1.016 0.91524 0 1.7738 0.35628 2.4203 1.0027 1.3345 1.3345 1.3345 3.5061 0 4.8412"/></svg>
